X: 1
T: Jack's Delight
C: Ralph Page
R: reel
Z: 2012 John Chambers <jc:trillian.mit.edu>
B: Northern Junket, v.8, #6, Oct. 1965
M: 2/4
L: 1/16
K: D
A2 |\
d2d2 cecA | d2fd A2ef | g2gf e2ed | cedB ABcA |
d2d2 cecA | d2fd A2ef | gfge cABc | d2d2d2 :|
|: AG |\
FAFA dAFA | AGFG E2F2 | GBGB edcd | cAB^G ABA=G |
FAFA dAFA | GBGB dBGB | cged cABc | d2d2d2 :|

%%sep 1 1 500

